X: 1
T:Nefarious Jig, The
R:Jig
C:John Woodard
S:Drowsy Maggie, Louisvile, Ky
Z:Paul Kinder
M:6/8
L:1/8
Q:1/8=220
K:Dm
dcd cAc|AGA FGD|dcd cAc|d^de Ac^c|!
dcd cAc|AGA FGD|FGG GFC|DA,B, G,2G,:|!
FGG GFC|DA,B, C2C|FGG GFC|DA,B, G,2G,|!
FGG GFC|DA,B, C2C|FGG GFC|DA,B, G,A,B,|!
G,2G,2A,B,|C2C2B,A,|G,2G,2A,B,|CB,A, G,A,B,|!
G,2G,2A,B,|C2C2B,A,|G,2G,2A,B,|CB,A, G,A,B,||!
